icons/desktop/16/svg/location-slash-16.svg

<svg width="16" height="17" viewBox="0 0 16 17" fill="none" xmlns="http://www.w3.org/2000/svg">
<path fill-rule="evenodd" clip-rule="evenodd" d="M0.219872 1.48047C0.51287 1.18747 0.987418 1.18747 1.28042 1.48047L14.5304 14.7305C14.8234 15.0235 14.8234 15.498 14.5304 15.791C14.3845 15.9368 14.1929 16.0107 14.0011 16.0107L14.0001 16.0098C13.8081 16.0098 13.6159 15.937 13.4699 15.79L11.3595 13.6797C10.8923 14.2076 10.4201 14.7128 9.96206 15.1768C9.43811 15.7077 8.74204 16.0009 8.00112 16.001C7.26013 16.001 6.56418 15.7078 6.04018 15.1768C3.74118 12.8478 1.00112 9.53977 1.00112 7.00977C1.00116 5.93334 1.24744 4.91495 1.68374 4.00391L0.219872 2.54004C-0.0730466 2.24712 -0.0728838 1.77349 0.219872 1.48047ZM2.82729 5.14746C2.61615 5.72905 2.50017 6.35571 2.50015 7.00977C2.50015 8.56374 4.1787 11.1571 7.10561 14.124C7.58558 14.61 8.41271 14.6099 8.89272 14.124C9.40233 13.6078 9.86691 13.1027 10.2941 12.6143L7.67007 9.99023C6.27788 9.83768 5.16883 8.72924 5.01675 7.33691L2.82729 5.14746Z" fill="black"/>
<path d="M8.00015 0C11.86 0.000134681 15 3.14496 15.0001 7.00977C15.0001 8.38275 14.1891 9.98612 13.0832 11.5371L12.0021 10.4561C12.9651 9.06608 13.5001 7.87375 13.5001 7.00977C13.5 3.97296 11.033 1.50111 8.00015 1.50098C6.62317 1.50098 5.36555 2.01354 4.39956 2.85352L3.33999 1.79395C4.57898 0.682987 6.21018 0 8.00015 0Z" fill="black"/>
<path d="M8.00015 4.00977C9.65395 4.0099 11 5.35596 11.0001 7.00977C11.0001 7.69475 10.7602 8.3192 10.3722 8.8252L9.29702 7.75C9.422 7.53101 9.50015 7.27974 9.50015 7.00977C9.50001 6.18296 8.82695 5.5099 8.00015 5.50977C7.73017 5.50977 7.4789 5.58691 7.25991 5.71289L6.18472 4.6377C6.68971 4.24971 7.31516 4.00977 8.00015 4.00977Z" fill="black"/>
</svg>

<!-- This Source Code Form is subject to the terms of the Mozilla Public
   - License, v. 2.0. If a copy of the MPL was not distributed with this
   - file, You can obtain one at http://mozilla.org/MPL/2.0/. -->
<svg xmlns="http://www.w3.org/2000/svg" width="16" height="17" fill="context-fill" fill-opacity="context-fill-opacity" viewBox="0 0 16 17">
    <path fill-rule="evenodd" d="M.22 1.48a.75.75 0 0 1 1.06 0l13.25 13.25a.75.75 0 0 1-.529 1.28.74.74 0 0 1-.531-.22l-2.11-2.11c-.468.528-.94 1.033-1.398 1.497-.524.53-1.22.824-1.96.824a2.74 2.74 0 0 1-1.962-.824C3.741 12.847 1.001 9.54 1.001 7.01a6.94 6.94 0 0 1 .683-3.006L.22 2.54a.75.75 0 0 1 0-1.06m2.607 3.667A5.5 5.5 0 0 0 2.5 7.01c0 1.554 1.679 4.147 4.606 7.114.48.486 1.307.486 1.787 0 .51-.516.974-1.021 1.401-1.51L7.67 9.99a3.005 3.005 0 0 1-2.653-2.653z" clip-rule="evenodd" />
    <path d="M8 0c3.86 0 7 3.145 7 7.01 0 1.373-.81 2.976-1.917 4.527l-1.08-1.08c.962-1.39 1.497-2.583 1.497-3.447C13.5 3.973 11.033 1.5 8 1.5a5.47 5.47 0 0 0-3.6 1.353l-1.06-1.06A6.96 6.96 0 0 1 8 0" />
    <path d="M8 4.01c1.654 0 3 1.346 3 3 0 .685-.24 1.31-.628 1.815L9.297 7.75a1.5 1.5 0 0 0 .203-.74c0-.827-.673-1.5-1.5-1.5-.27 0-.521.077-.74.203L6.185 4.638A2.97 2.97 0 0 1 8 4.01" />
</svg>
